X: 14370
T: Galtee Hunt, The
R: hornpipe
M: 4/4
K: Gmajor
D2|G>AB>G A>GE>D|~c2c>A B>GE>D|G>AB>G A>GE>D|E>AA>G A>cB>A|
G>AB>G A>GE>D|~c2c>d e>fg>e|d>BG>B A>GE>D|E>GG>F G2:|
|:(3DEF|G2G>B d2d2|(3efg f>d (3efe d2|(3efe e>d (3gag g>d|e>dB>c d>BG>B|
c2~c>B c>eg2|B2~B>A B>cd>B|~A3B A>GE>D|g>fg>b a>gf>e|
d>BG>B A>GE>D|c>Bc>d e>f (3gfe|d>BG>B A>GE>D|E>GG>F G2:|

